lib/img/icons/ui/zoom-out-fixed.svg

<?xml version="1.0" encoding="utf-8"?>
<!-- Generated by IcoMoon.io -->
<!DOCTYPE svg PUBLIC "-//W3C//DTD SVG 1.1//EN" "http://www.w3.org/Graphics/SVG/1.1/DTD/svg11.dtd">
<svg version="1.1" xmlns="http://www.w3.org/2000/svg" xmlns:xlink="http://www.w3.org/1999/xlink" width="32" height="32" viewBox="0 0 32 32">
<path fill="rgb(0, 0, 0)" d="M0 0h12v3h-6.915l6.915 6.723v2.109l-0.168 0.168h-2.117l-6.715-6.91v6.91h-3v-12zM20 0v3h6.915l-6.915 6.723v2.109l0.168 0.168h2.117l6.715-6.91v6.91h3v-12h-12zM29 26.91l-6.715-6.91h-2.117l-0.168 0.168v2.109l6.915 6.723h-6.915v3h12v-12h-3v6.91zM9.715 20l-6.715 6.91v-6.91h-3v12h12v-3h-6.915l6.915-6.723v-2.109l-0.168-0.168h-2.117z"></path>
</svg>

<svg xmlns="http://www.w3.org/2000/svg" width="32" height="32" viewBox="0 0 32 32" class="svg-icon">
    <path d="M0 0h12v3H5.085L12 9.723v2.109l-.168.168H9.715L3 5.09V12H0V0zm20 0v3h6.915L20 9.723v2.109l.168.168h2.117L29 5.09V12h3V0H20zm9 26.91L22.285 20h-2.117l-.168.168v2.109L26.915 29H20v3h12V20h-3v6.91zM9.715 20L3 26.91V20H0v12h12v-3H5.085L12 22.277v-2.109L11.832 20H9.715z"/>
</svg>
